X: 0135
T: Prince Edward - 8x40R
P: the Birches, Crieff
C: Nan Main
Z: 2020 John Chambers <jc:trillian.mit.edu> added headers, chords to melody from Bruce Shawyer.
S: Originally Ours v.1 p.177 #MMM-0135
R: reel
M: 2/4
L: 1/16
K: D
B2 |\
"D"dcde "A/D"d2A2 | "D"F2A2 D2z2 | "Em"e^def "B/Em"e2B2 | "Em"G2B2 E2z2 |\
"A"c2ce "E7"B2Bd | "A"A2Ac "G"G3D | "A7"CDEF GABc | "D"B2A2 "A7"A2Bc |
"D"dcde "A/D"d2A2 | "D"F2A2 D2z2 | "Em"e^def "B/Em"e2B2 | "Em"G2B2 "A7"E3A |\
"D"a2af "E/A7"g2ge | "F#/D"f2fd "G/A7"e2ec | "G"dcBA "A7"GABc | "D"d2D2 d2f2 ||
"D"a3^g "A/D"aba=g | "D"f2d2 "A/D"f2z2 | "E"e3^d "E7"efe=d | "A"c2A2 c2z2 |\
"G"B3^A Bcde | "A/D"f2d2 "F#/D"a3f | "E7"e^ded ef^ge | "A"a2A2 "G/A7"a3f |
|:\
"D"a^gag "A/D"aba=g | "D"f2d2 "A/D"f2z2 | "E"e^ded "E7"efe=d | "A"c2A2 "G/A7"c3A |\
"D"a2af "C#/A7"g2ge | "D"f2fd "E7"e2ec | "G/A7"dcBA "E/A7"GABc | "D"d2D2 d4 :|
